X:132
T: KOMM RAUS DU SCHOENE BRAUT
N: Z0131
O: Europa, Mitteleuropa, Deutschland
R: Erzaehlung, lustige Romanze, Braut - Lied
M: 3/4
L: 1/16
K: G
G2G2A2 | B6A2B2c2 | d3cB2
d2d2d2 | e6d2c2B2 | A4z2
G2G2A2 | B6A2B2c2 | d3cB2
d2d2d2 | e6d2c2B2 | A4z2
A2A2_B2 | c6A2_B2G2 | F3GA2
A2A2_B2 | c6A2_B2G2 | A4z2
G2G2A2 | B6A2B2c2 | d3cB2
d2d2d2 | e6dcB2A2 | G4z2

@@@ Tune index: 9890
